!!!OTL: I Know de Lord's Laid His Hands on Me
!!!ARE: United States of America
!!!AGN: Negro Spiritual
!!!AMD: Pentatonic
**kern
*>[A,B,B1,B,C]
*>norep[A,B,C]
*>A
*clefG2
*k[b-]
*M2/2
*MM144
{4a/
=1
8dd\
4cc\
8a/
(8a/L
8g/J
4f/)
=2
8dd\
4cc\
8a/
(8a/L
8g/J
4f/)}
=3
{8g/
4g/
8a/
(8g/L
8f/J)
8d/L
8c/J
=4
4f/
4f/
4f/}
{4a/
=5
8dd\
4cc\
8a/
(8a/L
8g/J
4f/)
=6
8dd\
4cc\
8a/
(8a/L
8g/J
4f/)}
=7
{8g/
4g/
8a/
(8g/L
8f/J)
8d/L
8c/J
=8
4f/
4f/
4f;/}
{4ff\
=9!|:
*>B
8ff\L
8ff\J
4dd\
4cc\
4dd\
=10
4a/
4a/
(8g/
4.f/)}
=11
{8g/
4g/
8a/
(8g/L
8f/J)
8d/L
8c/J
=12
!! First ending
*>B1
4f/
4f/
4f/}
{4ff\
=13:|!
!! Second ending
*>C
4f/
4f/
4f/}
{4a/
=14
8dd\
4cc\
8a/
(8a/L
8g/J
4f/)
=15
8dd\
4cc\
8a/
(8a/L
8g/J
4f/)}
=16
{8g/
4g/
8a/
(8g/L
8f/J)
8d/L
8c/J
=17
4f/
4f/
4f/}
{4a/
=18
8dd\
4cc\
8a/
(8a/L
8g/J
4f/)
=19
8dd\
4cc\
8a/
(8a/L
8g/J
4f/)}
=20
{8g/
4g/
8a/
(8g/L
8f/J)
8d/L
8c/J
=21
4f/
4f/
4.f;/}
==
*-
